assets/dist/images/landing-pages/push-notifications/push-1.svg

<svg xmlns="http://www.w3.org/2000/svg" xmlns:xlink="http://www.w3.org/1999/xlink" width="259" height="80" viewBox="0 0 259 80"><defs><linearGradient id="b" x1="50%" x2="50%" y1="0%" y2="100%"><stop offset="0%" stop-color="#914EA9"/><stop offset="100%" stop-color="#153E7D"/></linearGradient><path id="a" d="M20 6.256l-.001-.716a30.346 30.346 0 00-.01-.604 8.77 8.77 0 00-.115-1.313 4.424 4.424 0 00-.411-1.25A4.196 4.196 0 0017.626.538a4.43 4.43 0 00-1.248-.411A8.78 8.78 0 0015.064.01a30.379 30.379 0 00-.604-.009L13.744 0H6.256L5.54.001c-.201.002-.403.004-.604.01-.438.011-.88.037-1.314.115a4.43 4.43 0 00-1.248.411A4.199 4.199 0 00.538 2.374c-.204.4-.333.809-.412 1.249a8.77 8.77 0 00-.115 1.313c-.006.201-.008.403-.01.604L0 6.256v7.488c0 .239 0 .477.002.716 0 .201.003.403.009.604.011.438.037.88.115 1.313.079.44.208.85.412 1.25a4.193 4.193 0 001.836 1.836c.4.203.809.332 1.248.411.434.078.876.104 1.314.116.201.005.403.007.604.009l.716.001h7.488l.716-.001c.202-.002.403-.004.604-.01a8.78 8.78 0 001.314-.115 4.43 4.43 0 001.248-.411 4.19 4.19 0 001.837-1.836c.203-.4.332-.81.411-1.25a8.77 8.77 0 00.116-1.313c.005-.201.007-.403.009-.604l.001-.716V6.256z"/></defs><g fill="none" fill-rule="evenodd"><path fill="#FFF" d="M0 0h259v80H0z"/><g transform="translate(12 12)"><mask id="c" fill="#fff"><use xlink:href="#a"/></mask><path fill="url(#b)" mask="url(#c)" d="M0 0h20v20H0z"/><path fill="#FFF" fill-rule="nonzero" mask="url(#c)" d="M9.257 5.684l-2.073.072-.566 3.161H5.4l.246-4.191h9.353l.174 4.191h-1.146l-.565-3.161-2.044-.072v8.801l2.029.145v.87H7.401v-.87l1.856-.145z"/></g><path fill="#384254" fill-rule="nonzero" d="M44.97 45h-1.162v-3.948l-3.682-5.39h1.358l2.898 4.34 2.898-4.34h1.358l-3.668 5.39V45zm6.02.168c-2.058 0-3.346-1.596-3.346-3.556s1.288-3.542 3.346-3.542 3.346 1.582 3.346 3.542c0 1.96-1.288 3.556-3.346 3.556zm0-.938c1.442 0 2.24-1.232 2.24-2.618 0-1.372-.798-2.604-2.24-2.604-1.442 0-2.24 1.232-2.24 2.604 0 1.386.798 2.618 2.24 2.618zm10.668.77h-1.05v-.952c-.518.588-1.4 1.12-2.408 1.12-1.414 0-2.156-.7-2.156-2.156v-4.774h1.05v4.452c0 1.19.602 1.54 1.526 1.54.812 0 1.596-.476 1.988-1.022v-4.97h1.05V45zm11.354 0h-1.05v-4.452c0-1.204-.602-1.54-1.526-1.54-.812 0-1.596.504-1.988 1.05V45h-1.05v-9.338h1.05v3.556c.462-.574 1.386-1.148 2.408-1.148 1.414 0 2.156.686 2.156 2.156V45zm7.378 0h-1.05v-.77c-.546.616-1.33.938-2.24.938-1.134 0-2.352-.77-2.352-2.24 0-1.526 1.204-2.226 2.352-2.226.924 0 1.694.294 2.24.91v-1.218c0-.896-.728-1.414-1.708-1.414-.812 0-1.47.28-2.072.938l-.49-.728c.728-.756 1.596-1.12 2.702-1.12 1.442 0 2.618.644 2.618 2.282V45zm-2.898-.588c.728 0 1.442-.28 1.848-.84v-1.288c-.406-.546-1.12-.826-1.848-.826-.994 0-1.68.616-1.68 1.47 0 .868.686 1.484 1.68 1.484zm7.966.588H84.31l-2.814-6.762h1.148l2.24 5.544 2.254-5.544h1.134L85.458 45zm6.972.168c-2.016 0-3.458-1.442-3.458-3.556 0-1.96 1.4-3.542 3.332-3.542 2.044 0 3.248 1.596 3.248 3.626v.266h-5.46c.084 1.274.966 2.338 2.422 2.338.784 0 1.554-.308 2.1-.868l.504.686c-.686.672-1.596 1.05-2.688 1.05zm2.086-3.99c-.014-.994-.686-2.24-2.226-2.24-1.442 0-2.156 1.218-2.212 2.24h4.438zM107.284 45h-6.762v-1.302c3.626-2.744 5.054-3.948 5.054-5.306 0-.98-.854-1.414-1.708-1.414-1.092 0-1.918.434-2.52 1.106l-.952-1.064c.826-1.008 2.142-1.498 3.458-1.498 1.806 0 3.374 1.008 3.374 2.87 0 1.736-1.582 3.276-4.074 5.166h4.13V45zm7.476.168c-1.148 0-1.736-.616-1.736-1.75v-3.906h-1.12v-1.274h1.12V36.39h1.47v1.848h1.372v1.274h-1.372v3.542c0 .462.224.812.644.812.28 0 .532-.126.644-.252l.35 1.12c-.266.238-.7.434-1.372.434zm8.036-.168h-1.47v-.742c-.504.588-1.302.91-2.198.91-1.092 0-2.338-.756-2.338-2.24 0-1.568 1.232-2.212 2.338-2.212.924 0 1.694.294 2.198.868v-1.008c0-.784-.658-1.26-1.582-1.26-.756 0-1.428.28-2.002.868l-.616-1.022c.784-.756 1.764-1.092 2.842-1.092 1.512 0 2.828.63 2.828 2.436V45zm-3.08-.84c.63 0 1.26-.238 1.61-.7v-1.036c-.35-.462-.98-.7-1.61-.7-.826 0-1.456.49-1.456 1.218 0 .742.63 1.218 1.456 1.218zm7.308 1.008c-1.162 0-2.198-.378-2.898-1.064l.672-1.05c.476.49 1.414.938 2.282.938.882 0 1.344-.364 1.344-.896 0-1.33-4.088-.378-4.088-2.982 0-1.106.952-2.044 2.66-2.044 1.148 0 2.016.406 2.618.938l-.616 1.036c-.406-.448-1.148-.812-2.002-.812-.77 0-1.246.364-1.246.84 0 1.19 4.088.294 4.088 2.982 0 1.204-.994 2.114-2.814 2.114zM137.636 45h-1.848l-2.058-2.8-.952.98V45h-1.47v-9.338h1.47V41.5l2.982-3.262h1.82l-2.8 3.066L137.636 45zm3.374.168c-1.162 0-2.198-.378-2.898-1.064l.672-1.05c.476.49 1.414.938 2.282.938.882 0 1.344-.364 1.344-.896 0-1.33-4.088-.378-4.088-2.982 0-1.106.952-2.044 2.66-2.044 1.148 0 2.016.406 2.618.938l-.616 1.036c-.406-.448-1.148-.812-2.002-.812-.77 0-1.246.364-1.246.84 0 1.19 4.088.294 4.088 2.982 0 1.204-.994 2.114-2.814 2.114zM154.968 45h-1.05v-1.008c-.504.686-1.33 1.176-2.282 1.176-1.764 0-3.01-1.344-3.01-3.542 0-2.17 1.246-3.556 3.01-3.556.91 0 1.736.448 2.282 1.19v-3.598h1.05V45zm-3.066-.77c.826 0 1.652-.49 2.016-1.078V40.1c-.364-.588-1.19-1.092-2.016-1.092-1.372 0-2.184 1.12-2.184 2.618 0 1.498.812 2.604 2.184 2.604zm10.78.77h-1.05v-.952c-.518.588-1.4 1.12-2.408 1.12-1.414 0-2.156-.7-2.156-2.156v-4.774h1.05v4.452c0 1.19.602 1.54 1.526 1.54.812 0 1.596-.476 1.988-1.022v-4.97h1.05V45zm5.166.168c-2.016 0-3.458-1.442-3.458-3.556 0-1.96 1.4-3.542 3.332-3.542 2.044 0 3.248 1.596 3.248 3.626v.266h-5.46c.084 1.274.966 2.338 2.422 2.338.784 0 1.554-.308 2.1-.868l.504.686c-.686.672-1.596 1.05-2.688 1.05zm2.086-3.99c-.014-.994-.686-2.24-2.226-2.24-1.442 0-2.156 1.218-2.212 2.24h4.438zM42.996 63.168c-1.148 0-1.736-.616-1.736-1.75v-3.906h-1.12v-1.274h1.12V54.39h1.47v1.848h1.372v1.274H42.73v3.542c0 .462.224.812.644.812.28 0 .532-.126.644-.252l.35 1.12c-.266.238-.7.434-1.372.434zm5.488 0c-2.156 0-3.472-1.624-3.472-3.556 0-1.946 1.316-3.542 3.472-3.542 2.156 0 3.472 1.596 3.472 3.542 0 1.932-1.316 3.556-3.472 3.556zm0-1.302c1.26 0 1.946-1.05 1.946-2.254 0-1.19-.686-2.24-1.946-2.24-1.246 0-1.946 1.05-1.946 2.24 0 1.204.7 2.254 1.946 2.254zM63.226 63h-1.47v-4.41c0-.728-.322-1.218-1.12-1.218-.658 0-1.274.448-1.568.896V63h-1.47v-4.41c0-.728-.308-1.218-1.106-1.218-.658 0-1.26.462-1.568.896V63h-1.47v-6.762h1.47v.91c.294-.406 1.176-1.078 2.212-1.078 1.008 0 1.624.504 1.848 1.232.378-.602 1.274-1.232 2.296-1.232 1.232 0 1.946.672 1.946 2.044V63zm4.97.168c-2.156 0-3.472-1.624-3.472-3.556 0-1.946 1.316-3.542 3.472-3.542 2.156 0 3.472 1.596 3.472 3.542 0 1.932-1.316 3.556-3.472 3.556zm0-1.302c1.26 0 1.946-1.05 1.946-2.254 0-1.19-.686-2.24-1.946-2.24-1.246 0-1.946 1.05-1.946 2.24 0 1.204.7 2.254 1.946 2.254zM74.636 63h-1.47v-6.762h1.47v.98c.518-.644 1.33-1.148 2.198-1.148v1.456a2.029 2.029 0 00-.448-.042c-.63 0-1.456.42-1.75.91V63zm4.858 0h-1.47v-6.762h1.47v.98c.518-.644 1.33-1.148 2.198-1.148v1.456a2.029 2.029 0 00-.448-.042c-.63 0-1.456.42-1.75.91V63zm6.454.168c-2.156 0-3.472-1.624-3.472-3.556 0-1.946 1.316-3.542 3.472-3.542 2.156 0 3.472 1.596 3.472 3.542 0 1.932-1.316 3.556-3.472 3.556zm0-1.302c1.26 0 1.946-1.05 1.946-2.254 0-1.19-.686-2.24-1.946-2.24-1.246 0-1.946 1.05-1.946 2.24 0 1.204.7 2.254 1.946 2.254zM98.366 63h-1.54l-1.582-4.956L93.676 63h-1.54l-2.1-6.762h1.526l1.428 4.914 1.61-4.914h1.302l1.596 4.914 1.428-4.914h1.54L98.366 63zM45.488 25.168c-2.758 0-4.9-1.96-4.9-4.83 0-2.884 2.142-4.83 4.9-4.83 1.876 0 3.052.966 3.738 2.086l-1.386.728a2.76 2.76 0 00-2.352-1.358c-1.848 0-3.22 1.4-3.22 3.374 0 1.946 1.372 3.374 3.22 3.374.994 0 1.904-.588 2.352-1.358l1.4.7c-.714 1.12-1.876 2.114-3.752 2.114zm8.078 0c-2.156 0-3.472-1.624-3.472-3.556 0-1.946 1.316-3.542 3.472-3.542 2.156 0 3.472 1.596 3.472 3.542 0 1.932-1.316 3.556-3.472 3.556zm0-1.302c1.26 0 1.946-1.05 1.946-2.254 0-1.19-.686-2.24-1.946-2.24-1.246 0-1.946 1.05-1.946 2.24 0 1.204.7 2.254 1.946 2.254zM68.308 25h-1.47v-4.41c0-.728-.322-1.218-1.12-1.218-.658 0-1.274.448-1.568.896V25h-1.47v-4.41c0-.728-.308-1.218-1.106-1.218-.658 0-1.26.462-1.568.896V25h-1.47v-6.762h1.47v.91c.294-.406 1.176-1.078 2.212-1.078 1.008 0 1.624.504 1.848 1.232.378-.602 1.274-1.232 2.296-1.232 1.232 0 1.946.672 1.946 2.044V25zm2.646-7.588a.908.908 0 01-.91-.91c0-.504.406-.91.91-.91s.91.406.91.91-.406.91-.91.91zM71.682 25h-1.47v-6.762h1.47V25zm7.952 0h-1.47v-4.228c0-1.064-.546-1.4-1.372-1.4-.742 0-1.386.448-1.736.896V25h-1.47v-6.762h1.47v.91c.448-.532 1.33-1.078 2.394-1.078 1.456 0 2.184.784 2.184 2.17V25zm4.662 2.744c-1.148 0-2.002-.252-2.842-1.008l.686-1.064c.56.63 1.26.868 2.156.868.966 0 2.002-.448 2.002-1.89v-.77c-.518.686-1.288 1.134-2.17 1.134-1.722 0-2.996-1.246-2.996-3.472 0-2.198 1.246-3.472 2.996-3.472.854 0 1.624.378 2.17 1.106v-.938h1.47v6.412c0 2.436-1.82 3.094-3.472 3.094zm.266-4.046c.686 0 1.4-.406 1.736-.896v-2.534c-.336-.49-1.05-.896-1.736-.896-1.176 0-1.918.868-1.918 2.17s.742 2.156 1.918 2.156zM99.318 25h-1.47v-.896a3.234 3.234 0 01-2.38 1.064c-1.456 0-2.184-.77-2.184-2.142v-4.788h1.47v4.242c0 1.05.532 1.386 1.372 1.386.742 0 1.386-.434 1.722-.882v-4.746h1.47V25zm5.544.168c-.854 0-1.61-.392-2.17-1.106v3.514h-1.47v-9.338h1.47v.924a2.698 2.698 0 012.17-1.092c1.75 0 2.996 1.316 2.996 3.542s-1.246 3.556-2.996 3.556zm-.434-1.302c1.162 0 1.918-.938 1.918-2.254s-.756-2.24-1.918-2.24c-.686 0-1.4.392-1.736.896v2.674c.322.504 1.05.924 1.736.924z"/></g></svg>

<svg xmlns="http://www.w3.org/2000/svg" xmlns:xlink="http://www.w3.org/1999/xlink" width="259" height="80" viewBox="0 0 259 80">
  <defs>
    <path id="push-1-a" d="M20,6.25633333 C20,6.01733333 20,5.77866667 19.9986667,5.53966667 C19.9973333,5.33866667 19.995,5.13733333 19.9896667,4.93633333 C19.978,4.498 19.952,4.056 19.8743333,3.62266667 C19.7953333,3.18266667 19.6663333,2.77333333 19.4626667,2.37366667 C19.2626667,1.98066667 19.0016667,1.62166667 18.69,1.31 C18.3783333,0.998666667 18.0193333,0.737333333 17.6263333,0.537333333 C17.227,0.334 16.8176667,0.205 16.378,0.126 C15.9443333,0.048 15.5023333,0.0223333333 15.064,0.0103333333 C14.8626667,0.005 14.6616667,0.00266666667 14.4603333,0.00133333333 C14.2216667,1.77635684e-15 13.9826667,1.77635684e-15 13.7436667,1.77635684e-15 L6.25633333,1.77635684e-15 C6.01766667,1.77635684e-15 5.77866667,1.77635684e-15 5.54,0.00133333333 C5.33866667,0.00266666667 5.13733333,0.005 4.93633333,0.0103333333 C4.498,0.0223333333 4.05566667,0.048 3.62233333,0.126 C3.18266667,0.205 2.77333333,0.334 2.374,0.537333333 C1.981,0.737333333 1.62166667,0.998666667 1.31033333,1.31 C0.998666667,1.62166667 0.737666667,1.98066667 0.537666667,2.37366667 C0.334,2.77333333 0.205,3.18266667 0.126,3.62266667 C0.0483333333,4.056 0.0223333333,4.498 0.0106666667,4.93633333 C0.00533333333,5.13733333 0.00266666667,5.33866667 0.00166666667,5.53966667 C0,5.77866667 0,6.01733333 0,6.25633333 L0,13.7436667 C0,13.9826667 0,14.2213333 0.00166666667,14.4603333 C0.00266666667,14.6613333 0.00533333333,14.8626667 0.0106666667,15.0636667 C0.0223333333,15.502 0.0483333333,15.944 0.126,16.3773333 C0.205,16.8173333 0.334,17.227 0.537666667,17.6266667 C0.737666667,18.0193333 0.998666667,18.3783333 1.31033333,18.6896667 C1.62166667,19.0016667 1.981,19.2626667 2.374,19.4626667 C2.77333333,19.666 3.18266667,19.795 3.62233333,19.874 C4.05566667,19.9516667 4.498,19.978 4.93633333,19.9896667 C5.13733333,19.995 5.33866667,19.9973333 5.54,19.9986667 C5.77866667,20 6.01766667,20 6.25633333,20 L13.7436667,20 C13.9826667,20 14.2216667,20 14.4603333,19.9986667 C14.6616667,19.9973333 14.8626667,19.995 15.064,19.9896667 C15.5023333,19.978 15.9443333,19.9516667 16.378,19.874 C16.8176667,19.795 17.227,19.666 17.6263333,19.4626667 C18.0193333,19.2626667 18.3783333,19.0016667 18.69,18.6896667 C19.0016667,18.3783333 19.2626667,18.0193333 19.4626667,17.6266667 C19.6663333,17.227 19.7953333,16.8173333 19.8743333,16.3773333 C19.952,15.944 19.978,15.502 19.9896667,15.0636667 C19.995,14.8626667 19.9973333,14.6613333 19.9986667,14.4603333 C20,14.2213333 20,13.9826667 20,13.7436667 L20,6.25633333 Z"/>
    <linearGradient id="push-1-b" x1="50%" x2="50%" y1="0%" y2="100%">
      <stop offset="0%" stop-color="#914EA9"/>
      <stop offset="100%" stop-color="#153E7D"/>
    </linearGradient>
  </defs>
  <g fill="none" fill-rule="evenodd">
    <rect width="259" height="80" fill="#FFF"/>
    <g transform="translate(12 12)">
      <mask id="push-1-c" fill="#fff">
        <use xlink:href="#push-1-a"/>
      </mask>
      <rect width="20" height="20" fill="url(#push-1-b)" mask="url(#push-1-c)"/>
      <polygon fill="#FFF" fill-rule="nonzero" points="9.257 5.684 7.184 5.756 6.618 8.917 5.4 8.917 5.646 4.726 14.999 4.726 15.173 8.917 14.027 8.917 13.462 5.756 11.418 5.684 11.418 14.485 13.447 14.63 13.447 15.5 7.401 15.5 7.401 14.63 9.257 14.485" mask="url(#push-1-c)"/>
    </g>
    <path fill="#384254" fill-rule="nonzero" d="M44.97 45L43.808 45 43.808 41.052 40.126 35.662 41.484 35.662 44.382 40.002 47.28 35.662 48.638 35.662 44.97 41.052 44.97 45zM50.99 45.168C48.932 45.168 47.644 43.572 47.644 41.612 47.644 39.652 48.932 38.07 50.99 38.07 53.048 38.07 54.336 39.652 54.336 41.612 54.336 43.572 53.048 45.168 50.99 45.168zM50.99 44.23C52.432 44.23 53.23 42.998 53.23 41.612 53.23 40.24 52.432 39.008 50.99 39.008 49.548 39.008 48.75 40.24 48.75 41.612 48.75 42.998 49.548 44.23 50.99 44.23zM61.658 45L60.608 45 60.608 44.048C60.09 44.636 59.208 45.168 58.2 45.168 56.786 45.168 56.044 44.468 56.044 43.012L56.044 38.238 57.094 38.238 57.094 42.69C57.094 43.88 57.696 44.23 58.62 44.23 59.432 44.23 60.216 43.754 60.608 43.208L60.608 38.238 61.658 38.238 61.658 45zM73.012 45L71.962 45 71.962 40.548C71.962 39.344 71.36 39.008 70.436 39.008 69.624 39.008 68.84 39.512 68.448 40.058L68.448 45 67.398 45 67.398 35.662 68.448 35.662 68.448 39.218C68.91 38.644 69.834 38.07 70.856 38.07 72.27 38.07 73.012 38.756 73.012 40.226L73.012 45zM80.39 45L79.34 45 79.34 44.23C78.794 44.846 78.01 45.168 77.1 45.168 75.966 45.168 74.748 44.398 74.748 42.928 74.748 41.402 75.952 40.702 77.1 40.702 78.024 40.702 78.794 40.996 79.34 41.612L79.34 40.394C79.34 39.498 78.612 38.98 77.632 38.98 76.82 38.98 76.162 39.26 75.56 39.918L75.07 39.19C75.798 38.434 76.666 38.07 77.772 38.07 79.214 38.07 80.39 38.714 80.39 40.352L80.39 45zM77.492 44.412C78.22 44.412 78.934 44.132 79.34 43.572L79.34 42.284C78.934 41.738 78.22 41.458 77.492 41.458 76.498 41.458 75.812 42.074 75.812 42.928 75.812 43.796 76.498 44.412 77.492 44.412zM85.458 45L84.31 45 81.496 38.238 82.644 38.238 84.884 43.782 87.138 38.238 88.272 38.238 85.458 45zM92.43 45.168C90.414 45.168 88.972 43.726 88.972 41.612 88.972 39.652 90.372 38.07 92.304 38.07 94.348 38.07 95.552 39.666 95.552 41.696L95.552 41.962 90.092 41.962C90.176 43.236 91.058 44.3 92.514 44.3 93.298 44.3 94.068 43.992 94.614 43.432L95.118 44.118C94.432 44.79 93.522 45.168 92.43 45.168zM94.516 41.178C94.502 40.184 93.83 38.938 92.29 38.938 90.848 38.938 90.134 40.156 90.078 41.178L94.516 41.178zM107.284 45L100.522 45 100.522 43.698C104.148 40.954 105.576 39.75 105.576 38.392 105.576 37.412 104.722 36.978 103.868 36.978 102.776 36.978 101.95 37.412 101.348 38.084L100.396 37.02C101.222 36.012 102.538 35.522 103.854 35.522 105.66 35.522 107.228 36.53 107.228 38.392 107.228 40.128 105.646 41.668 103.154 43.558L107.284 43.558 107.284 45zM114.76 45.168C113.612 45.168 113.024 44.552 113.024 43.418L113.024 39.512 111.904 39.512 111.904 38.238 113.024 38.238 113.024 36.39 114.494 36.39 114.494 38.238 115.866 38.238 115.866 39.512 114.494 39.512 114.494 43.054C114.494 43.516 114.718 43.866 115.138 43.866 115.418 43.866 115.67 43.74 115.782 43.614L116.132 44.734C115.866 44.972 115.432 45.168 114.76 45.168zM122.796 45L121.326 45 121.326 44.258C120.822 44.846 120.024 45.168 119.128 45.168 118.036 45.168 116.79 44.412 116.79 42.928 116.79 41.36 118.022 40.716 119.128 40.716 120.052 40.716 120.822 41.01 121.326 41.584L121.326 40.576C121.326 39.792 120.668 39.316 119.744 39.316 118.988 39.316 118.316 39.596 117.742 40.184L117.126 39.162C117.91 38.406 118.89 38.07 119.968 38.07 121.48 38.07 122.796 38.7 122.796 40.506L122.796 45zM119.716 44.16C120.346 44.16 120.976 43.922 121.326 43.46L121.326 42.424C120.976 41.962 120.346 41.724 119.716 41.724 118.89 41.724 118.26 42.214 118.26 42.942 118.26 43.684 118.89 44.16 119.716 44.16zM127.024 45.168C125.862 45.168 124.826 44.79 124.126 44.104L124.798 43.054C125.274 43.544 126.212 43.992 127.08 43.992 127.962 43.992 128.424 43.628 128.424 43.096 128.424 41.766 124.336 42.718 124.336 40.114 124.336 39.008 125.288 38.07 126.996 38.07 128.144 38.07 129.012 38.476 129.614 39.008L128.998 40.044C128.592 39.596 127.85 39.232 126.996 39.232 126.226 39.232 125.75 39.596 125.75 40.072 125.75 41.262 129.838 40.366 129.838 43.054 129.838 44.258 128.844 45.168 127.024 45.168zM137.636 45L135.788 45 133.73 42.2 132.778 43.18 132.778 45 131.308 45 131.308 35.662 132.778 35.662 132.778 41.5 135.76 38.238 137.58 38.238 134.78 41.304 137.636 45zM141.01 45.168C139.848 45.168 138.812 44.79 138.112 44.104L138.784 43.054C139.26 43.544 140.198 43.992 141.066 43.992 141.948 43.992 142.41 43.628 142.41 43.096 142.41 41.766 138.322 42.718 138.322 40.114 138.322 39.008 139.274 38.07 140.982 38.07 142.13 38.07 142.998 38.476 143.6 39.008L142.984 40.044C142.578 39.596 141.836 39.232 140.982 39.232 140.212 39.232 139.736 39.596 139.736 40.072 139.736 41.262 143.824 40.366 143.824 43.054 143.824 44.258 142.83 45.168 141.01 45.168zM154.968 45L153.918 45 153.918 43.992C153.414 44.678 152.588 45.168 151.636 45.168 149.872 45.168 148.626 43.824 148.626 41.626 148.626 39.456 149.872 38.07 151.636 38.07 152.546 38.07 153.372 38.518 153.918 39.26L153.918 35.662 154.968 35.662 154.968 45zM151.902 44.23C152.728 44.23 153.554 43.74 153.918 43.152L153.918 40.1C153.554 39.512 152.728 39.008 151.902 39.008 150.53 39.008 149.718 40.128 149.718 41.626 149.718 43.124 150.53 44.23 151.902 44.23zM162.682 45L161.632 45 161.632 44.048C161.114 44.636 160.232 45.168 159.224 45.168 157.81 45.168 157.068 44.468 157.068 43.012L157.068 38.238 158.118 38.238 158.118 42.69C158.118 43.88 158.72 44.23 159.644 44.23 160.456 44.23 161.24 43.754 161.632 43.208L161.632 38.238 162.682 38.238 162.682 45zM167.848 45.168C165.832 45.168 164.39 43.726 164.39 41.612 164.39 39.652 165.79 38.07 167.722 38.07 169.766 38.07 170.97 39.666 170.97 41.696L170.97 41.962 165.51 41.962C165.594 43.236 166.476 44.3 167.932 44.3 168.716 44.3 169.486 43.992 170.032 43.432L170.536 44.118C169.85 44.79 168.94 45.168 167.848 45.168zM169.934 41.178C169.92 40.184 169.248 38.938 167.708 38.938 166.266 38.938 165.552 40.156 165.496 41.178L169.934 41.178zM42.996 63.168C41.848 63.168 41.26 62.552 41.26 61.418L41.26 57.512 40.14 57.512 40.14 56.238 41.26 56.238 41.26 54.39 42.73 54.39 42.73 56.238 44.102 56.238 44.102 57.512 42.73 57.512 42.73 61.054C42.73 61.516 42.954 61.866 43.374 61.866 43.654 61.866 43.906 61.74 44.018 61.614L44.368 62.734C44.102 62.972 43.668 63.168 42.996 63.168zM48.484 63.168C46.328 63.168 45.012 61.544 45.012 59.612 45.012 57.666 46.328 56.07 48.484 56.07 50.64 56.07 51.956 57.666 51.956 59.612 51.956 61.544 50.64 63.168 48.484 63.168zM48.484 61.866C49.744 61.866 50.43 60.816 50.43 59.612 50.43 58.422 49.744 57.372 48.484 57.372 47.238 57.372 46.538 58.422 46.538 59.612 46.538 60.816 47.238 61.866 48.484 61.866zM63.226 63L61.756 63 61.756 58.59C61.756 57.862 61.434 57.372 60.636 57.372 59.978 57.372 59.362 57.82 59.068 58.268L59.068 63 57.598 63 57.598 58.59C57.598 57.862 57.29 57.372 56.492 57.372 55.834 57.372 55.232 57.834 54.924 58.268L54.924 63 53.454 63 53.454 56.238 54.924 56.238 54.924 57.148C55.218 56.742 56.1 56.07 57.136 56.07 58.144 56.07 58.76 56.574 58.984 57.302 59.362 56.7 60.258 56.07 61.28 56.07 62.512 56.07 63.226 56.742 63.226 58.114L63.226 63zM68.196 63.168C66.04 63.168 64.724 61.544 64.724 59.612 64.724 57.666 66.04 56.07 68.196 56.07 70.352 56.07 71.668 57.666 71.668 59.612 71.668 61.544 70.352 63.168 68.196 63.168zM68.196 61.866C69.456 61.866 70.142 60.816 70.142 59.612 70.142 58.422 69.456 57.372 68.196 57.372 66.95 57.372 66.25 58.422 66.25 59.612 66.25 60.816 66.95 61.866 68.196 61.866zM74.636 63L73.166 63 73.166 56.238 74.636 56.238 74.636 57.218C75.154 56.574 75.966 56.07 76.834 56.07L76.834 57.526C76.708 57.498 76.568 57.484 76.386 57.484 75.756 57.484 74.93 57.904 74.636 58.394L74.636 63zM79.494 63L78.024 63 78.024 56.238 79.494 56.238 79.494 57.218C80.012 56.574 80.824 56.07 81.692 56.07L81.692 57.526C81.566 57.498 81.426 57.484 81.244 57.484 80.614 57.484 79.788 57.904 79.494 58.394L79.494 63zM85.948 63.168C83.792 63.168 82.476 61.544 82.476 59.612 82.476 57.666 83.792 56.07 85.948 56.07 88.104 56.07 89.42 57.666 89.42 59.612 89.42 61.544 88.104 63.168 85.948 63.168zM85.948 61.866C87.208 61.866 87.894 60.816 87.894 59.612 87.894 58.422 87.208 57.372 85.948 57.372 84.702 57.372 84.002 58.422 84.002 59.612 84.002 60.816 84.702 61.866 85.948 61.866zM98.366 63L96.826 63 95.244 58.044 93.676 63 92.136 63 90.036 56.238 91.562 56.238 92.99 61.152 94.6 56.238 95.902 56.238 97.498 61.152 98.926 56.238 100.466 56.238 98.366 63zM45.488 25.168C42.73 25.168 40.588 23.208 40.588 20.338 40.588 17.454 42.73 15.508 45.488 15.508 47.364 15.508 48.54 16.474 49.226 17.594L47.84 18.322C47.392 17.538 46.482 16.964 45.488 16.964 43.64 16.964 42.268 18.364 42.268 20.338 42.268 22.284 43.64 23.712 45.488 23.712 46.482 23.712 47.392 23.124 47.84 22.354L49.24 23.054C48.526 24.174 47.364 25.168 45.488 25.168zM53.566 25.168C51.41 25.168 50.094 23.544 50.094 21.612 50.094 19.666 51.41 18.07 53.566 18.07 55.722 18.07 57.038 19.666 57.038 21.612 57.038 23.544 55.722 25.168 53.566 25.168zM53.566 23.866C54.826 23.866 55.512 22.816 55.512 21.612 55.512 20.422 54.826 19.372 53.566 19.372 52.32 19.372 51.62 20.422 51.62 21.612 51.62 22.816 52.32 23.866 53.566 23.866zM68.308 25L66.838 25 66.838 20.59C66.838 19.862 66.516 19.372 65.718 19.372 65.06 19.372 64.444 19.82 64.15 20.268L64.15 25 62.68 25 62.68 20.59C62.68 19.862 62.372 19.372 61.574 19.372 60.916 19.372 60.314 19.834 60.006 20.268L60.006 25 58.536 25 58.536 18.238 60.006 18.238 60.006 19.148C60.3 18.742 61.182 18.07 62.218 18.07 63.226 18.07 63.842 18.574 64.066 19.302 64.444 18.7 65.34 18.07 66.362 18.07 67.594 18.07 68.308 18.742 68.308 20.114L68.308 25zM70.954 17.412C70.45 17.412 70.044 17.006 70.044 16.502 70.044 15.998 70.45 15.592 70.954 15.592 71.458 15.592 71.864 15.998 71.864 16.502 71.864 17.006 71.458 17.412 70.954 17.412zM71.682 25L70.212 25 70.212 18.238 71.682 18.238 71.682 25zM79.634 25L78.164 25 78.164 20.772C78.164 19.708 77.618 19.372 76.792 19.372 76.05 19.372 75.406 19.82 75.056 20.268L75.056 25 73.586 25 73.586 18.238 75.056 18.238 75.056 19.148C75.504 18.616 76.386 18.07 77.45 18.07 78.906 18.07 79.634 18.854 79.634 20.24L79.634 25zM84.296 27.744C83.148 27.744 82.294 27.492 81.454 26.736L82.14 25.672C82.7 26.302 83.4 26.54 84.296 26.54 85.262 26.54 86.298 26.092 86.298 24.65L86.298 23.88C85.78 24.566 85.01 25.014 84.128 25.014 82.406 25.014 81.132 23.768 81.132 21.542 81.132 19.344 82.378 18.07 84.128 18.07 84.982 18.07 85.752 18.448 86.298 19.176L86.298 18.238 87.768 18.238 87.768 24.65C87.768 27.086 85.948 27.744 84.296 27.744zM84.562 23.698C85.248 23.698 85.962 23.292 86.298 22.802L86.298 20.268C85.962 19.778 85.248 19.372 84.562 19.372 83.386 19.372 82.644 20.24 82.644 21.542 82.644 22.844 83.386 23.698 84.562 23.698zM99.318 25L97.848 25 97.848 24.104C97.372 24.636 96.532 25.168 95.468 25.168 94.012 25.168 93.284 24.398 93.284 23.026L93.284 18.238 94.754 18.238 94.754 22.48C94.754 23.53 95.286 23.866 96.126 23.866 96.868 23.866 97.512 23.432 97.848 22.984L97.848 18.238 99.318 18.238 99.318 25zM104.862 25.168C104.008 25.168 103.252 24.776 102.692 24.062L102.692 27.576 101.222 27.576 101.222 18.238 102.692 18.238 102.692 19.162C103.196 18.49 103.98 18.07 104.862 18.07 106.612 18.07 107.858 19.386 107.858 21.612 107.858 23.838 106.612 25.168 104.862 25.168zM104.428 23.866C105.59 23.866 106.346 22.928 106.346 21.612 106.346 20.296 105.59 19.372 104.428 19.372 103.742 19.372 103.028 19.764 102.692 20.268L102.692 22.942C103.014 23.446 103.742 23.866 104.428 23.866z"/>
  </g>
</svg>
